X: 1
C: Trad
M: C
L: 1/8
Q: 1/4=120
R: Hornpipe
K: Dmaj
c>B | .A2 A>B A>GE>G | c>d (3edc d2 (3efg |\
a>ge>d c>AG>E | .G2 G>A G c>B |
.A A>B A>GE>G | c>d (3edc d2 (3efg |\
a>ge>d c>AG>E | .A2 A>B A2 :|
e2 | g2 g>a g>ec>e | g>ec>e g3 e |\
a>ge>d c>AG>E | .G2 G>A G c>B |
.A A>B A>GE>G | c>d (3edc d2 (3efg |\
a>ge>d c>AG>E | .A2 A>B A2 :|